!!!COM: Bach, Johann Sebastian
!!!CDT: 1685/3//-1750/7/28/
!!!OTL@@DE: Jesus Christus, unser Heiland
!!!AGN: 4-Part Chorale
!!!SCT: BH 030
!!!SCT: BWV 363
**harm	**root	**kern	**kern	**kern	**kern
!	!	!bass	!tenor	!alto	!soprno
*	*Iorgan	*Iorgan	*Iorgan	*Iorgan	*Iorgan
*M4/4	*M4/4	*M4/4	*M4/4	*M4/4	*M4/4
*met(c)	*met(c)	*met(c)	*met(c)	*met(c)	*met(c)
*MM60	*MM60	*MM60	*MM60	*MM60	*MM60
*k[f#c#]	*k[f#c#]	*k[f#c#]	*k[f#c#]	*k[f#c#]	*k[f#c#]
*b:	*b:	*b:	*b:	*b:	*b:
=1-	=1-	=1-	=1-	=1-	=1-
i	4EE	4.BB	4D	4F#	4B
vb	4BB	.	4C#	4F#	4f#
.	.	8AA	.	.	.
VI7	4CC	2GG	4D	8B	4f#
.	.	.	.	8A#	.
ivb	4AA	.	8C#	4B	4e
.	.	.	8BB	.	.
=2	=2	=2	=2	=2	=2
V	4BB	8FF#	4C#	4A#	4f#
.	.	8E	.	.	.
ib	8EE	8D	8F#	8B	8B
-VIIb	8DD#	8C#	8E	8A#	8c#
i	4EE	8BB	4F#	4B	4d
.	.	8AA	.	.	.
VI	4CC	8GG	8B	4B	4d
.	.	8FF#	8A#	.	.
=3	=3	=3	=3	=3	=3
viioD7/V	4AA#	4EE#	4G#	4.B	4d
V7	4BB	4FF#	8C#	.	4c#
.	.	.	16F#	8A#	.
.	.	.	16E	.	.
i;	2EE;	2BBB;	2D;	2F#;	2B;
=4	=4	=4	=4	=4	=4
i	4EE	8BB	4F#	4B	4d
.	.	8AA	.	.	.
VI	4CC	4GG	4G	4B	4d
IIIb	4GG	4FF#	4D	4A	4d
VI	4CC	4GG	4D	4G	4B
=5	=5	=5	=5	=5	=5
IIIb	4GG	8GG	8D	4A	4d
.	.	8FF#	16E	.	.
.	.	.	16F#	.	.
IV	4AA	4EE	4G	8B	4e
.	.	.	.	8c#	.
III	4GG	4DD	8A	4.d	4f#
.	.	.	16B	.	.
.	.	.	16A	.	.
iib	4FF#	4EE	16G	.	4e
.	.	.	16F#	.	.
.	.	.	8G	[8c#	.
=6	=6	=6	=6	=6	=6
ic	4EE	2FF#	4F#	8c#]	4d
.	.	.	.	4B	.
V	4BB	.	8.F#	.	4c#
.	.	.	.	8A#	.
.	.	.	16E	.	.
i;	2EE;	2BB;	2D;	2F#;	2B;
!!linebreak: 2
=7	=7	=7	=7	=7	=7
i	4EE	4BB	8F#	4B	4d
.	.	.	8G	.	.
IIIb	4GG	4FF#	4A	8d	4d
.	.	.	.	8c#	.
VI	4CC	8GG	4G	4B	4d
.	.	8AA	.	.	.
VIb	4CC	8BB	4D	4G	4B
.	.	8AA	.	.	.
=8	=8	=8	=8	=8	=8
VI	4CC	8GG	4D	8B	4d
.	.	8FF#	.	8A	.
IV	4AA	4EE	4G	8B	4e
.	.	.	.	8c#	.
III	4GG	4DD	[4A	4.d	4f#
-VII	4DD	4AA	8.A]	.	4e
.	.	.	.	8c#	.
.	.	.	16G	.	.
=9	=9	=9	=9	=9	=9
III;	2GG;	2DD;	2F#;	2A;	2d;
r	4r	4r	4r	4r	4r
IIIb	4GG	4FF#	4A	8d	4a
.	.	.	.	8c	.
=10	=10	=10	=10	=10	=10
VI	4CC	4GG	8G	4B	4b
.	.	.	8F#	.	.
-VII	4DD	4AA	4E	4c#y	8a
.	.	.	.	.	8g
i	8EE	4.BB	8D	8d	8f#
viioD7	8DD#	.	8G	8A#	8e
i	8EE	.	8F#	8B	8d
-VIIb	8DD	8C#	8E	[8A	8e
=11	=11	=11	=11	=11	=11
III	8GG	8D	8D	8A]	4f#
IIIb	8GG	8FF#	8A	4d	.
V7b/-VII	8AA	8GG#	8B	.	4e
V7b	8BB	8AA#	8F#	4c#	.
i	4EE	8BB	4F#	.	4d
.	.	8DD	.	4B	.
viiD7/III	8FF#	8EE	8G	.	4c#
V	8BB	8FF#	16F#	8A#	.
.	.	.	16E	.	.
=12	=12	=12	=12	=12	=12
I;	2.EE;	2.BBB;	2.D#;	2.F#;	2.B;
==	==	==	==	==	==
*-	*-	*-	*-	*-	*-
!!chor2scor: -l 2 -s 0.6 -o %b.pmx
!!!YEC: Copyright 1994, David Huron
!!!YEC: Changes/Additions 2001 by Craig Stuart Sapp
!!!YEN: United States of America
!!!SMA: 371 Bach Chorales, edited by Ludwig Erk, C.F. Peters
!!!PDT: 1850, 1865
!!!ONB: Harmony and Root analysis done manually
